svg/emoji_u1f608.svg

<?xml version="1.0" encoding="utf-8"?>
<!-- Generator: Adobe Illustrator 16.0.0, SVG Export Plug-In . SVG Version: 6.00 Build 0)  -->
<!DOCTYPE svg PUBLIC "-//W3C//DTD SVG 1.1//EN" "http://www.w3.org/Graphics/SVG/1.1/DTD/svg11.dtd">
<svg version="1.1" id="レイヤー_1" xmlns="http://www.w3.org/2000/svg" xmlns:xlink="http://www.w3.org/1999/xlink" x="0px"
	 y="0px" width="128px" height="128px" viewBox="0 0 128 128" enable-background="new 0 0 128 128" xml:space="preserve">
<g>
	<g>
		<g>
			<g>
				<path fill="#E75625" d="M64.462,24.818c-58.321,0-59.705,65.383-59.705,78.328c0,12.931,26.749,23.428,59.705,23.428
					c32.992,0,59.705-10.497,59.705-23.428C124.167,90.201,122.791,24.818,64.462,24.818z"/>
			</g>
			<g>
				<g>
					<path fill="#E75625" d="M83.917,40.163c0.715-2.009,2.199-3.9,4.425-5.651c1.819-1.434,3.747-2.833,5.249-4.615
						c4.416-5.262,6.578-13.447,5.583-20.292c-0.227-1.534-1.719-4.479-0.706-5.868c1.747-2.375,6.081,0.082,7.466,1.452
						c4.353,4.28,6.958,10.148,8.234,16.048c1.593,7.33,1.366,14.931-1.059,22.034c-2.018,5.877-6.868,11.687-13.121,13.071
						c-5.357,1.19-11.148-2.353-14.107-6.561C83.492,46.357,82.867,43.131,83.917,40.163z"/>
				</g>
				<g>
					<path fill="#E75625" d="M45.007,39.321c-0.707-2.004-2.181-3.891-4.425-5.651c-1.828-1.434-3.719-2.828-5.24-4.615
						c-4.406-5.257-6.569-13.438-5.574-20.283c0.226-1.538,1.701-4.479,0.697-5.873C28.728,0.515,24.402,2.98,23,4.356
						c-4.344,4.28-6.95,10.148-8.244,16.043c-1.575,7.325-1.357,14.926,1.077,22.029c2.009,5.882,6.877,11.687,13.121,13.076
						c5.348,1.189,11.139-2.357,14.08-6.561C45.441,45.524,46.074,42.298,45.007,39.321z"/>
				</g>
			</g>
		</g>
		<g>
			<g>
				<g>
					<defs>
						<path id="SVGID_1_" d="M38.057,89.855c-13.818-2.836-15.275-15.5-14.289-21.002l34.259,10.261
							C57.06,84.591,47.757,91.844,38.057,89.855z"/>
					</defs>
					<use xlink:href="#SVGID_1_"  overflow="visible" fill="#2F2F2F"/>
					<clipPath id="SVGID_2_">
						<use xlink:href="#SVGID_1_"  overflow="visible"/>
					</clipPath>
					<path clip-path="url(#SVGID_2_)" fill="#FBB817" d="M39.469,84.109c-9.167-1.794-9.99-11.038-8.651-14.68l21.473,6.796
						C52.164,79.852,45.938,85.376,39.469,84.109z"/>
				</g>
			</g>
			<g>
				<g>
					<defs>
						<path id="SVGID_3_" d="M90.866,89.855c13.818-2.836,15.275-15.5,14.289-21.002L70.896,79.114
							C71.873,84.591,81.175,91.844,90.866,89.855z"/>
					</defs>
					<use xlink:href="#SVGID_3_"  overflow="visible" fill="#2F2F2F"/>
					<clipPath id="SVGID_4_">
						<use xlink:href="#SVGID_3_"  overflow="visible"/>
					</clipPath>
					<path clip-path="url(#SVGID_4_)" fill="#FBB817" d="M89.455,84.109c9.167-1.794,9.991-11.038,8.651-14.68l-21.464,6.796
						C76.759,79.852,82.985,85.376,89.455,84.109z"/>
				</g>
			</g>
		</g>
	</g>
	<path fill="#2F2F2F" d="M65.738,113.016c-0.633,0-1.308-0.025-1.982-0.057c-15.835-0.946-21.844-9.538-22.088-9.904
		c-0.896-1.298-0.543-3.057,0.742-3.936c1.285-0.876,3.032-0.543,3.918,0.733c0.227,0.321,4.932,6.687,17.772,7.442
		c12.804,0.738,18.379-7.619,18.451-7.703c0.828-1.312,2.597-1.692,3.909-0.841c1.308,0.853,1.692,2.6,0.828,3.914
		C87.012,103.107,80.433,113.016,65.738,113.016z"/>
</g>
</svg>

<?xml version="1.0" encoding="UTF-8" standalone="no"?>
<!DOCTYPE svg PUBLIC "-//W3C//DTD SVG 1.1//EN" "http://www.w3.org/Graphics/SVG/1.1/DTD/svg11.dtd">
<svg width="100%" height="100%" viewBox="0 0 128 128" version="1.1" xmlns="http://www.w3.org/2000/svg" xmlns:xlink="http://www.w3.org/1999/xlink" xml:space="preserve" xmlns:serif="http://www.serif.com/" style="fill-rule:evenodd;clip-rule:evenodd;stroke-linejoin:round;stroke-miterlimit:1.41421;">
    <path d="M64.46,24.82C6.14,24.82 4.76,90.2 4.76,103.15C4.76,116.08 31.51,126.58 64.46,126.58C97.45,126.58 124.16,116.08 124.16,103.15C124.17,90.2 122.79,24.82 64.46,24.82Z" style="fill:rgb(180,124,228);fill-rule:nonzero;"/>
    <path d="M83.92,40.16C84.63,38.15 86.12,36.26 88.35,34.51C90.17,33.08 92.1,31.68 93.6,29.9C98.02,24.64 100.18,16.45 99.18,9.61C98.95,8.08 97.46,5.13 98.47,3.74C100.22,1.36 104.55,3.82 105.94,5.19C110.29,9.47 112.9,15.34 114.17,21.24C115.76,28.57 115.54,36.17 113.11,43.27C111.09,49.15 106.24,54.96 99.99,56.34C94.63,57.53 88.84,53.99 85.88,49.78C83.49,46.36 82.87,43.13 83.92,40.16ZM45.01,39.32C44.3,37.32 42.83,35.43 40.58,33.67C38.75,32.24 36.86,30.84 35.34,29.06C30.93,23.8 28.77,15.62 29.77,8.78C30,7.24 31.47,4.3 30.47,2.91C28.73,0.51 24.4,2.98 23,4.36C18.66,8.64 16.05,14.51 14.76,20.4C13.19,27.72 13.4,35.33 15.84,42.43C17.85,48.31 22.72,54.12 28.96,55.51C34.31,56.7 40.1,53.15 43.04,48.95C45.44,45.52 46.07,42.3 45.01,39.32Z" style="fill:rgb(180,124,228);fill-rule:nonzero;"/>
    <path id="a" d="M38.06,89.86C24.24,87.02 22.79,74.36 23.77,68.86L58.03,79.12C57.06,84.59 47.76,91.84 38.06,89.86Z" style="fill:rgb(47,47,47);fill-rule:nonzero;"/>
    <clipPath id="_clip1">
        <path d="M38.06,89.86C24.24,87.02 22.79,74.36 23.77,68.86L58.03,79.12C57.06,84.59 47.76,91.84 38.06,89.86Z"/>
    </clipPath>
    <g clip-path="url(#_clip1)">
        <path d="M39.47,84.11C30.3,82.32 29.48,73.07 30.82,69.43L52.29,76.23C52.16,79.85 45.94,85.38 39.47,84.11Z" style="fill:rgb(251,184,23);fill-rule:nonzero;"/>
    </g>
    <g>
        <path id="c" d="M90.87,89.86C104.69,87.02 106.14,74.36 105.16,68.86L70.9,79.11C71.87,84.59 81.18,91.84 90.87,89.86Z" style="fill:rgb(47,47,47);fill-rule:nonzero;"/>
        <clipPath id="_clip2">
            <path d="M90.87,89.86C104.69,87.02 106.14,74.36 105.16,68.86L70.9,79.11C71.87,84.59 81.18,91.84 90.87,89.86Z"/>
        </clipPath>
        <g clip-path="url(#_clip2)">
            <path d="M89.45,84.11C98.62,82.32 99.44,73.07 98.1,69.43L76.64,76.23C76.76,79.85 82.98,85.38 89.45,84.11Z" style="fill:rgb(251,184,23);fill-rule:nonzero;"/>
        </g>
    </g>
    <path d="M65.74,113.02C65.11,113.02 64.43,112.99 63.76,112.96C47.92,112.01 41.92,103.42 41.67,103.06C40.77,101.76 41.13,100 42.41,99.12C43.7,98.24 45.44,98.58 46.33,99.85C46.56,100.17 51.26,106.54 64.1,107.29C76.9,108.03 82.48,99.67 82.55,99.59C83.38,98.28 85.15,97.9 86.46,98.75C87.77,99.6 88.15,101.35 87.29,102.66C87.01,103.11 80.43,113.02 65.74,113.02Z" style="fill:rgb(47,47,47);fill-rule:nonzero;"/>
</svg>
